X: 34441
T: Ricky's
R: hornpipe
M: 4/4
K: Dmajor
DF|:"D"A2ABA2FA|dcBAF2A2|"G"B2B2G2B2|"D"ABAGF2A2|
"G"B2B2G2B2|"D"ABAGF2A2|"D"d2d2"A7"e2de|1 "D"fgfed2DF:|2 "D"fgfed2cd||
|:"A"e2efe2de|"D"f2fgf2cd|"A"e2efe2a2|"A"gfede2cd|
"A"edefe2de|"D"fefgf2cd|"G"eagf "A"edce|1 "D"d2dcd2cd:|2 "D"d2dcd4||

